assets/Dango/Flat/dango_flat.svg

<svg width="32" height="32" viewBox="0 0 32 32" fill="none" xmlns="http://www.w3.org/2000/svg">
<path d="M6.7775 8.2375C6.4075 8.2375 6.0375 8.0975 5.7475 7.8075L2.4275 4.4875C1.8575 3.9175 1.8575 2.9975 2.4275 2.4275C2.9975 1.8575 3.9175 1.8575 4.4875 2.4275L7.7975 5.7475C8.3675 6.3175 8.3675 7.2375 7.7975 7.8075C7.5175 8.0975 7.1475 8.2375 6.7775 8.2375Z" fill="#D3883E"/>
<path d="M9.17749 14.9075C12.5243 14.9075 15.2375 12.1944 15.2375 8.84754C15.2375 5.50069 12.5243 2.78754 9.17749 2.78754C5.83065 2.78754 3.11749 5.50069 3.11749 8.84754C3.11749 12.1944 5.83065 14.9075 9.17749 14.9075Z" fill="#FBB8AB"/>
<path d="M15.4375 21.1675C18.7843 21.1675 21.4975 18.4543 21.4975 15.1075C21.4975 11.7606 18.7843 9.04749 15.4375 9.04749C12.0907 9.04749 9.3775 11.7606 9.3775 15.1075C9.3775 18.4543 12.0907 21.1675 15.4375 21.1675Z" fill="#FFDEA7"/>
<path d="M21.7075 27.4375C25.0543 27.4375 27.7675 24.7244 27.7675 21.3775C27.7675 18.0307 25.0543 15.3175 21.7075 15.3175C18.3606 15.3175 15.6475 18.0307 15.6475 21.3775C15.6475 24.7244 18.3606 27.4375 21.7075 27.4375Z" fill="#00F397"/>
<path d="M28.5875 29.9975C28.2175 29.9975 27.8475 29.8575 27.5575 29.5675L23.1775 25.2375C22.6075 24.6675 22.6075 23.7475 23.1775 23.1775C23.7475 22.6075 24.6675 22.6075 25.2375 23.1775L29.6175 27.5075C30.1875 28.0775 30.1875 28.9975 29.6175 29.5675C29.3275 29.8575 28.9575 29.9975 28.5875 29.9975Z" fill="#D3883E"/>
</svg>

<svg xmlns="http://www.w3.org/2000/svg" width="32" height="32" fill="none"><path fill="#D3883E" d="M6.777 8.238c-.37 0-.74-.14-1.03-.43l-3.32-3.32c-.57-.57-.57-1.49 0-2.06.57-.57 1.49-.57 2.06 0l3.31 3.32c.57.57.57 1.49 0 2.06-.28.29-.65.43-1.02.43Z"/><path fill="#FBB8AB" d="M9.177 14.908a6.06 6.06 0 1 0 0-12.12 6.06 6.06 0 0 0 0 12.12Z"/><path fill="#FFDEA7" d="M15.438 21.168a6.06 6.06 0 1 0 0-12.12 6.06 6.06 0 0 0 0 12.12Z"/><path fill="#00F397" d="M21.707 27.438a6.06 6.06 0 1 0 0-12.12 6.06 6.06 0 0 0 0 12.12Z"/><path fill="#D3883E" d="M28.587 29.997c-.37 0-.74-.14-1.03-.43l-4.38-4.33c-.57-.57-.57-1.49 0-2.06.57-.57 1.49-.57 2.06 0l4.38 4.33c.57.57.57 1.49 0 2.06-.29.29-.66.43-1.03.43Z"/></svg>
